images/icons/alert/notification-warning.svg

<svg height="30" viewBox="0 0 30 30" width="30" xmlns="http://www.w3.org/2000/svg"><path d="m29.8619938 27.566953-2.3256617-6.4283181c.7251456-1.7336459 1.1238627-3.6398565 1.1238627-5.6386349.0011295-8.00882724-6.4144891-14.5-14.3289679-14.5-7.91447878 0-14.3312269 6.49117276-14.3312269 14.5 0 8.0076844 6.41674812 14.5 14.3312269 14.5 3.395308 0 6.509368-1.2010955 8.9649234-3.1964455l5.2397984 2.0764896c1.1554891.4571249 1.753-.133709 1.3260451-1.3130911zm-22.66136552-10.2110261c-1.01204124 0-1.83545427-.8331101-1.83545427-1.8570697 0-1.0239597.82341303-1.8570697 1.83545427-1.8570697 1.01317076 0 1.83545427.8319672 1.83545427 1.8582125s-.82228351 1.8559269-1.83545427 1.8559269zm6.77706192 0c-1.0120412 0-1.8354543-.8331101-1.8354543-1.8570697 0-1.0239597.8234131-1.8570697 1.8354543-1.8570697 1.0131708 0 1.8354543.8319672 1.8354543 1.8582125s-.8222835 1.8559269-1.8354543 1.8559269zm6.7770619 0c-1.0120412 0-1.8354543-.8331101-1.8354543-1.8570697 0-1.0239597.8234131-1.8570697 1.8354543-1.8570697 1.0131708 0 1.8354543.8319672 1.8354543 1.8582125s-.8222835 1.8559269-1.8354543 1.8559269z" fill="#fff"/></svg>

<?xml version="1.0" encoding="UTF-8"?>
<svg width="30px" height="30px" viewBox="0 0 30 30" version="1.1" xmlns="http://www.w3.org/2000/svg" xmlns:xlink="http://www.w3.org/1999/xlink">
    <!-- Generator: Sketch 52.1 (67048) - http://www.bohemiancoding.com/sketch -->
    <title>notification-warning</title>
    <desc>Created with Sketch.</desc>
    <g id="notification-warning" stroke="none" stroke-width="1" fill="none" fill-rule="evenodd">
        <path d="M29.8619938,27.566953 L27.5363321,21.1386349 C28.2614777,19.404989 28.6601948,17.4987784 28.6601948,15.5 C28.6613243,7.49117276 22.2457057,1 14.3312269,1 C6.41674812,1 0,7.49117276 0,15.5 C0,23.5076844 6.41674812,30 14.3312269,30 C17.7265349,30 20.8405949,28.7989045 23.2961503,26.8035545 L28.5359487,28.8800441 C29.6914378,29.337169 30.2889487,28.7463351 29.8619938,27.566953 Z M7.20062828,17.3559269 C6.18858704,17.3559269 5.36517401,16.5228168 5.36517401,15.4988572 C5.36517401,14.4748975 6.18858704,13.6417875 7.20062828,13.6417875 C8.21379904,13.6417875 9.03608255,14.4737547 9.03608255,15.5 C9.03608255,16.5262453 8.21379904,17.3559269 7.20062828,17.3559269 Z M13.9776902,17.3559269 C12.965649,17.3559269 12.1422359,16.5228168 12.1422359,15.4988572 C12.1422359,14.4748975 12.965649,13.6417875 13.9776902,13.6417875 C14.990861,13.6417875 15.8131445,14.4737547 15.8131445,15.5 C15.8131445,16.5262453 14.990861,17.3559269 13.9776902,17.3559269 Z M20.7547521,17.3559269 C19.7427109,17.3559269 18.9192978,16.5228168 18.9192978,15.4988572 C18.9192978,14.4748975 19.7427109,13.6417875 20.7547521,13.6417875 C21.7679229,13.6417875 22.5902064,14.4737547 22.5902064,15.5 C22.5902064,16.5262453 21.7679229,17.3559269 20.7547521,17.3559269 Z" id="Shape-Copy" fill="#FFFFFF" fill-rule="nonzero"></path>
    </g>
</svg>
